images/like.svg

<svg width="23" height="20" viewBox="0 0 23 20" fill="none" xmlns="http://www.w3.org/2000/svg">
<path d="M11.5 18.6027L2.57194 10.0666C0.694955 8.23588 0.269676 4.79082 2.57128 2.57337C3.99418 1.20249 5.59294 0.843592 7.0488 1.05699C8.54017 1.27558 9.8951 2.09981 10.7262 3.11508L11.5 4.06034L12.2738 3.11508C13.1049 2.09981 14.4598 1.27558 15.9512 1.05699C17.4071 0.843592 19.0058 1.20249 20.4287 2.57337C22.7304 4.79085 22.305 8.23598 20.428 10.0667L11.5 18.6027Z" stroke="#212121" stroke-width="2"/>
</svg>

<svg xmlns="http://www.w3.org/2000/svg" width="23" height="20" fill="none"><path stroke="#212121" stroke-width="2" d="m11.5 18.603-8.928-8.536C.695 8.236.27 4.79 2.572 2.573c1.422-1.37 3.02-1.73 4.477-1.516 1.491.219 2.846 1.043 3.677 2.058l.774.945.774-.945c.83-1.015 2.186-1.84 3.677-2.058 1.456-.213 3.055.145 4.478 1.516 2.301 2.218 1.876 5.663-.001 7.494z"/></svg>
